src/assets/duotone/BitcoinRefresh.svg

<svg width="24" height="24" viewBox="0 0 24 24"  xmlns="http://www.w3.org/2000/svg">
<path opacity="0.4" d="M23.5302 12.0502C23.2402 11.7602 22.7602 11.7602 22.4702 12.0502L22.0102 12.5103V12.0002C22.0102 6.48024 17.5202 1.99023 12.0002 1.99023C8.95024 1.99023 6.10025 3.36023 4.19025 5.74023C3.93025 6.06023 3.98024 6.54022 4.31024 6.79022C4.63024 7.05022 5.11025 7.00023 5.36025 6.67023C6.99025 4.64023 9.41024 3.48022 12.0002 3.48022C16.6902 3.48022 20.5102 7.30023 20.5102 11.9902V12.4902L20.0502 12.0303C19.7602 11.7403 19.2802 11.7403 18.9902 12.0303C18.7002 12.3203 18.7002 12.8003 18.9902 13.0903L20.7302 14.8303C20.8002 14.9003 20.8802 14.9502 20.9702 14.9902C21.0602 15.0302 21.1602 15.0502 21.2602 15.0502C21.3602 15.0502 21.4502 15.0302 21.5502 14.9902C21.6402 14.9502 21.7202 14.9003 21.7902 14.8303L23.5302 13.0903C23.8202 12.8203 23.8202 12.3402 23.5302 12.0502Z" />
<path opacity="0.4" d="M19.6902 17.2004C19.3702 16.9404 18.8902 16.9904 18.6402 17.3204C17.0102 19.3504 14.5902 20.5104 12.0002 20.5104C7.31019 20.5104 3.49019 16.6904 3.49019 12.0004V11.5004L3.95019 11.9605C4.10019 12.1105 4.2902 12.1804 4.4802 12.1804C4.6702 12.1804 4.86019 12.1105 5.01019 11.9605C5.30019 11.6705 5.30019 11.1905 5.01019 10.9005L3.27019 9.1604C3.20019 9.0904 3.12019 9.04043 3.03019 9.00043C2.85019 8.92043 2.64019 8.92043 2.46019 9.00043C2.37019 9.04043 2.29019 9.0904 2.22019 9.1604L0.480195 10.9005C0.190195 11.1905 0.190195 11.6705 0.480195 11.9605C0.770195 12.2505 1.25019 12.2505 1.54019 11.9605L2.00019 11.5004V12.0004C2.00019 17.5204 6.49019 22.0104 12.0102 22.0104C15.0602 22.0104 17.9102 20.6404 19.8202 18.2604C20.0702 17.9404 20.0202 17.4604 19.6902 17.2004Z" />
<path d="M15.45 11.64C15.72 11.24 15.87 10.77 15.87 10.25C15.87 8.92 14.7 7.75 13.37 7.75H12.55V6.75C12.55 6.34 12.21 6 11.8 6C11.39 6 11.05 6.34 11.05 6.75V7.75H9C8.59 7.75 8.25 8.09 8.25 8.5V12V15.5C8.25 15.91 8.59 16.25 9 16.25H11.05V17.25C11.05 17.66 11.39 18 11.8 18C12.21 18 12.55 17.66 12.55 17.25V16.25H14C15.52 16.25 16.75 15.13 16.75 13.75C16.75 12.86 16.23 12.08 15.45 11.64ZM9.75 9.25H13.37C13.92 9.25 14.37 9.8 14.37 10.25C14.37 10.8 13.92 11.25 13.37 11.25H9.75V9.25ZM14 14.75H9.75V12.75H13.37H14C14.69 12.75 15.25 13.2 15.25 13.75C15.25 14.3 14.69 14.75 14 14.75Z" />
</svg>

<?xml version="1.0" encoding="UTF-8"?>
<svg width="24" height="24" viewBox="0 0 24 24" xmlns="http://www.w3.org/2000/svg">
 <path d="m23.53 12.05c-0.29-0.29-0.77-0.29-1.06 0l-0.46 0.4601v-0.5101c0-5.52-4.49-10.01-10.01-10.01-3.05 0-5.9 1.37-7.81 3.75-0.26 0.32-0.21001 0.79999 0.11999 1.05 0.32 0.26 0.80001 0.21001 1.05-0.11999 1.63-2.03 4.05-3.19 6.64-3.19 4.69 0 8.51 3.82 8.51 8.51v0.5l-0.46-0.4599c-0.29-0.29-0.77-0.29-1.06 0s-0.29 0.77 0 1.06l1.74 1.74c0.07 0.07 0.15 0.1199 0.24 0.1599s0.19 0.06 0.29 0.06 0.19-0.02 0.29-0.06c0.09-0.04 0.17-0.0899 0.24-0.1599l1.74-1.74c0.29-0.27 0.29-0.7501 0-1.0401z" opacity=".4"/>
 <path d="m19.69 17.2c-0.32-0.26-0.8-0.21-1.05 0.12-1.63 2.03-4.05 3.19-6.64 3.19-4.69 0-8.51-3.82-8.51-8.51v-0.5l0.46 0.4601c0.15 0.15 0.34001 0.2199 0.53001 0.2199s0.37999-0.0699 0.52999-0.2199c0.29-0.29 0.29-0.77 0-1.06l-1.74-1.7401c-0.07-0.07-0.15-0.11997-0.24-0.15997-0.18-0.08-0.39-0.08-0.57 0-0.09 0.04-0.17 0.08997-0.24 0.15997l-1.74 1.7401c-0.29 0.29-0.29 0.77 0 1.06s0.77 0.29 1.06 0l0.46-0.4601v0.5c0 5.52 4.49 10.01 10.01 10.01 3.05 0 5.9-1.37 7.81-3.75 0.25-0.32 0.2-0.8-0.13-1.06z" opacity=".4"/>
 <path d="m15.45 11.64c0.27-0.4 0.42-0.87 0.42-1.39 0-1.33-1.17-2.5-2.5-2.5h-0.82v-1c0-0.41-0.34-0.75-0.75-0.75s-0.75 0.34-0.75 0.75v1h-2.05c-0.41 0-0.75 0.34-0.75 0.75v7c0 0.41 0.34 0.75 0.75 0.75h2.05v1c0 0.41 0.34 0.75 0.75 0.75s0.75-0.34 0.75-0.75v-1h1.45c1.52 0 2.75-1.12 2.75-2.5 0-0.89-0.52-1.67-1.3-2.11zm-5.7-2.39h3.62c0.55 0 1 0.55 1 1 0 0.55-0.45 1-1 1h-3.62v-2zm4.25 5.5h-4.25v-2h4.25c0.69 0 1.25 0.45 1.25 1s-0.56 1-1.25 1z"/>
</svg>
